; generated by PrusaSlicer 2.5.0+win64 on 2023-02-21 at 00:10:28 UTC


;
;
; 

; external perimeters extrusion width = 0.45mm
; perimeters extrusion width = 0.45mm
; infill extrusion width = 0.45mm
; solid infill extrusion width = 0.45mm
; top infill extrusion width = 0.40mm
; first layer extrusion width = 0.42mm

M73 P0 R22
M73 Q0 S22
M201 X1000 Y1000 Z200 E5000 ; sets maximum accelerations, mm/sec^2
M203 X200 Y200 Z12 E120 ; sets maximum feedrates, mm / sec
M204 P1250 R1250 T1250 ; sets acceleration (P, T) and retract acceleration (R), mm/sec^2
M205 X8.00 Y8.00 Z0.40 E4.50 ; sets the jerk limits, mm/sec
M205 S0 T0 ; sets the minimum extruding and travel feed rate, mm/sec
M107
;TYPE:Custom
M862.3 P "MK3" ; printer model check
M862.1 P0.4 ; nozzle diameter check
M115 U3.11.0 ; tell printer latest fw version
G90 ; use absolute coordinates
M83 ; extruder relative mode
M104 S215 ; set extruder temp
M140 S60 ; set bed temp
M190 S60 ; wait for bed temp
M109 S215 ; wait for extruder temp
G28 W ; home all without mesh bed level
G80 ; mesh bed leveling

G1 Z0.2 F720
G1 Y-3 F1000 ; go outside print area
G92 E0
G1 X60 E9 F1000 ; intro line
G1 X100 E12.5 F1000 ; intro line

G92 E0
M221 S95

; Don't change E values below. Excessive value can damage the printer.

M907 E538 ; set extruder motor current
G21 ; set units to millimeters
G90 ; use absolute coordinates
M83 ; use relative distances for extrusion
M900 K0.05 ; Filament gcode LA 1.5
M900 K30 ; Filament gcode LA 1.0
M107
;LAYER_CHANGE
;Z:0.2
;HEIGHT:0.2
;BEFORE_LAYER_CHANGE
G92 E0.0
;0.2


G1 E-.8 F2100
G1 Z.4 F720
;AFTER_LAYER_CHANGE
;0.2
G1 X113.015 Y83.693 F10800
G1 Z.2 F720
G1 E.8 F2100
M204 S800
;TYPE:Skirt/Brim
;WIDTH:0.42
G1 F1200
G1 X114.06 Y82.817 E.04278
G1 X115 Y82.623 E.03008
G1 X135 Y82.623 E.62709
G1 X136.307 Y83.015 E.04278
G1 X137.183 Y84.06 E.04278
G1 X137.377 Y85 E.03008
G1 X137.377 Y125 E1.25417
G1 X136.985 Y126.307 E.04278
G1 X135.94 Y127.183 E.04278
G1 X135 Y127.377 E.03008
G1 X115 Y127.377 E.62709
G1 X113.693 Y126.985 E.04278
G1 X112.817 Y125.94 E.04278
G1 X112.623 Y125 E.03008
G1 X112.623 Y85 E1.25417
G1 X112.997 Y83.75 E.0409
M204 S1000
; printing object ledHolder.stl id:0 copy 0
;WIPE_START
M73 P1 R22
M73 Q1 S22
G1 F8640
G1 X114.06 Y82.817 E-.32671
G1 X115 Y82.623 E-.22155
G1 X115.917 Y82.623 E-.21174
;WIPE_END
G1 E-.04 F2100
G1 Z.6 F720
G1 X115.787 Y110.868 F10800
G1 Z.2 F720
G1 E.8 F2100
M204 S800
;TYPE:Perimeter
;WIDTH:0.419999
G1 F1200
G1 X115.787 Y104.874 E.18794
;WIDTH:0.461182
G1 X115.808 Y104.587 E.01001
;WIDTH:0.502365
G1 X115.828 Y104.3 E.01099
;WIDTH:0.543547
G1 X115.849 Y104.013 E.01198
G1 X115.832 Y103.156 E.0357
;WIDTH:0.516588
G1 X115.835 Y102.298 E.03379
;WIDTH:0.565235
G1 X115.86 Y101.436 E.03747
G1 X115.835 Y101.177 E.01129
;WIDTH:0.516823
M73 P1 R21
G1 X115.811 Y100.918 E.01024
;WIDTH:0.468411
G1 X115.787 Y100.66 E.0092
;WIDTH:0.419999
G1 X115.787 Y85.787 E.46632
G1 X134.213 Y85.787 E.57773
G1 X134.213 Y90.409 E.14493
M73 Q1 S21
G1 X134.213 Y100.225 E.30778
;WIDTH:0.464074
G1 X134.191 Y100.442 E.00762
;WIDTH:0.508149
G1 X134.169 Y100.658 E.00842
;WIDTH:0.552224
G1 X134.147 Y100.875 E.00922
;WIDTH:0.596299
G1 X134.125 Y101.092 E.01001
G1 X134.141 Y101.521 E.01979
;WIDTH:0.563733
G1 X134.157 Y101.951 E.01863
;WIDTH:0.531167
G1 X134.169 Y102.808 E.0348
;WIDTH:0.524823
G1 X134.161 Y103.667 E.0344
;WIDTH:0.559198
G1 X134.143 Y104.531 E.0371
G1 X134.167 Y104.79 E.01115
;WIDTH:0.512799
G1 X134.19 Y105.048 E.01015
;WIDTH:0.466399
G1 X134.213 Y105.307 E.00915
;WIDTH:0.419999
G1 X134.213 Y124.213 E.59278
G1 X115.787 Y124.213 E.57773
G1 X115.787 Y110.928 E.41653
M204 S1000
;WIPE_START
G1 F8640
G1 X115.787 Y107.637 E-.76
;WIPE_END
G1 E-.04 F2100
G1 Z.6 F720
G1 X134.59 Y124.59 F10800
G1 Z.2 F720
G1 E.8 F2100
M204 S800
;TYPE:External perimeter
G1 F1200
G1 X115.41 Y124.59 E.60137
G1 X115.41 Y85.41 E1.22846
G1 X134.59 Y85.41 E.60137
G1 X134.59 Y124.53 E1.22658
M204 S1000
G1 X134.217 Y124.445 F10800
;WIPE_START
M73 Q2 S21
G1 F8640
M73 P2 R21
G1 X131.299 Y124.54 E-.76
;WIPE_END
G1 E-.04 F2100
G1 Z.6 F720
G1 X122.507 Y111.095 F10800
G1 Z.2 F720
G1 E.8 F2100
M204 S800
;TYPE:Perimeter
G1 F1200
G1 X122.148 Y111.027 E.01145
G1 X121.418 Y110.759 E.02439
G1 X120.952 Y110.523 E.01637
G1 X120.041 Y109.972 E.03337
G1 X119.313 Y109.408 E.0289
G1 X118.713 Y108.833 E.02604
G1 X118.171 Y108.203 E.02604
G1 X117.657 Y107.467 E.02816
G1 X117.107 Y106.441 E.0365
G1 X116.797 Y105.656 E.02646
G1 X116.568 Y104.858 E.02604
;WIDTH:0.46229
G1 X116.497 Y104.589 E.00968
;WIDTH:0.504581
G1 X116.426 Y104.321 E.01066
;WIDTH:0.546872
G1 X116.355 Y104.052 E.01164
G1 X116.3 Y103.217 E.03506
;WIDTH:0.514143
G1 X116.305 Y102.383 E.03271
;WIDTH:0.558521
G1 X116.37 Y101.55 E.03582
G1 X116.449 Y101.281 E.012
;WIDTH:0.512347
G1 X116.527 Y101.012 E.01093
;WIDTH:0.466173
G1 X116.605 Y100.743 E.00985
;WIDTH:0.419999
G1 X116.848 Y99.949 E.02604
G1 X117.165 Y99.182 E.02604
G1 X117.591 Y98.39 E.02816
G1 X118.259 Y97.437 E.0365
G1 X118.811 Y96.816 E.02606
G1 X119.429 Y96.243 E.02641
G1 X120.09 Y95.739 E.02606
G1 X120.796 Y95.302 E.02604
G1 X121.541 Y94.934 E.02604
G1 X122.042 Y94.743 E.0168
G1 X123.119 Y94.42 E.03525
G1 X123.937 Y94.279 E.02604
G1 X124.765 Y94.217 E.02604
G1 X125.596 Y94.234 E.02604
G1 X126.42 Y94.331 E.02604
G1 X127.232 Y94.506 E.02604
G1 X128.024 Y94.758 E.02604
G1 X128.787 Y95.085 E.02604
G1 X129.516 Y95.484 E.02604
G1 X130.203 Y95.95 E.02604
G1 X131.132 Y96.759 E.03863
G1 X131.699 Y97.384 E.02646
G1 X132.194 Y98.051 E.02604
G1 X132.623 Y98.762 E.02604
G1 X132.982 Y99.511 E.02604
G1 X133.267 Y100.291 E.02604
;WIDTH:0.465525
G1 X133.359 Y100.554 E.00976
;WIDTH:0.511051
G1 X133.451 Y100.816 E.01082
;WIDTH:0.556576
G1 X133.543 Y101.078 E.01187
G1 X133.665 Y101.906 E.03575
;WIDTH:0.535663
G1 X133.704 Y102.741 E.03426
;WIDTH:0.521369
G1 X133.684 Y103.576 E.03321
;WIDTH:0.548735
G1 X133.644 Y103.992 E.01758
;WIDTH:0.576101
G1 X133.604 Y104.408 E.01853
G1 X133.538 Y104.608 E.00933
;WIDTH:0.537076
G1 X133.473 Y104.808 E.00864
;WIDTH:0.49805
G1 X133.407 Y105.008 E.00796
;WIDTH:0.459025
G1 X133.342 Y105.207 E.00728
;WIDTH:0.419999
G1 X133.08 Y105.996 E.02604
G1 X132.744 Y106.755 E.02604
G1 X132.337 Y107.479 E.02604
G1 X131.862 Y108.161 E.02604
G1 X131.324 Y108.794 E.02604
G1 X130.728 Y109.372 E.02604
G1 X130.079 Y109.891 E.02604
G1 X129.384 Y110.345 E.02604
G1 X128.648 Y110.73 E.02605
G1 X128.149 Y110.918 E.01673
G1 X127.496 Y111.094 E.0212
G1 X128.024 Y111.555 E.02198
G1 X128.326 Y111.979 E.01631
G1 X128.622 Y112.437 E.01709
G1 X128.966 Y113.245 E.02755
G1 X129.201 Y114.182 E.03029
G1 X129.285 Y115.163 E.03088
G1 X129.215 Y116.146 E.0309
G1 X128.996 Y117.079 E.03003
G1 X128.628 Y117.965 E.03011
G1 X128.119 Y118.758 E.02952
G1 X127.496 Y119.413 E.02835
G1 X126.756 Y119.923 E.02816
G1 X125.939 Y120.249 E.0276
G1 X125.07 Y120.373 E.02751
G1 X124.197 Y120.283 E.02751
G1 X123.366 Y119.986 E.02768
G1 X122.597 Y119.49 E.02869
G1 X121.939 Y118.83 E.02921
G1 X121.426 Y118.065 E.02891
G1 X121.036 Y117.178 E.03035
G1 X120.798 Y116.228 E.03073
G1 X120.715 Y115.261 E.03043
G1 X120.784 Y114.277 E.03093
G1 X121.007 Y113.328 E.03056
G1 X121.425 Y112.353 E.03324
G1 X121.883 Y111.664 E.02595
G1 X122.313 Y111.249 E.01874
G1 X122.46 Y111.132 E.00589
M204 S1000
;WIPE_START
G1 F8640
G1 X122.148 Y111.027 E-.07597
G1 X121.418 Y110.759 E-.17962
G1 X120.952 Y110.523 E-.12059
G1 X120.041 Y109.972 E-.24573
G1 X119.569 Y109.606 E-.13808
;WIPE_END
G1 E-.04 F2100
G1 Z.6 F720
G1 X123.795 Y110.868 F10800
G1 Z.2 F720
G1 E.8 F2100
M204 S800
;TYPE:External perimeter
G1 F1200
G1 X123.11 Y110.742 E.02184
G1 X122.643 Y110.734 E.01465
G1 X122.278 Y110.673 E.0116
G1 X121.548 Y110.405 E.02439
G1 X120.837 Y110.038 E.02509
G1 X120.247 Y109.656 E.02205
G1 X119.547 Y109.113 E.02777
G1 X118.975 Y108.562 E.02491
G1 X118.458 Y107.958 E.02491
G1 X117.989 Y107.289 E.02562
G1 X117.44 Y106.263 E.0365
G1 X117.148 Y105.519 E.02504
G1 X116.931 Y104.755 E.02491
G1 X116.788 Y103.974 E.02491
G1 X116.721 Y103.182 E.02491
G1 X116.729 Y102.388 E.02491
G1 X116.814 Y101.598 E.02491
G1 X116.974 Y100.82 E.02491
G1 X117.208 Y100.06 E.02491
G1 X117.513 Y99.327 E.02491
G1 X117.899 Y98.607 E.02562
G1 X118.568 Y97.654 E.0365
G1 X119.092 Y97.067 E.02465
G1 X119.684 Y96.52 E.02529
G1 X120.318 Y96.04 E.02492
G1 X120.994 Y95.623 E.02491
G1 X121.707 Y95.273 E.02491
G1 X122.45 Y94.992 E.02491
G1 X123.217 Y94.784 E.02491
G1 X124 Y94.651 E.02491
G1 X124.792 Y94.593 E.02491
G1 X125.587 Y94.611 E.02491
G1 X126.375 Y94.705 E.02491
G1 X127.152 Y94.874 E.02491
G1 X127.908 Y95.117 E.02491
G1 X128.638 Y95.431 E.02491
G1 X129.334 Y95.814 E.02491
G1 X130.008 Y96.275 E.02562
G1 X130.884 Y97.043 E.0365
G1 X131.418 Y97.636 E.02504
G1 X131.891 Y98.275 E.02491
G1 X132.299 Y98.956 E.02491
G1 X132.641 Y99.673 E.02491
G1 X132.913 Y100.42 E.02491
G1 X133.112 Y101.189 E.02491
G1 X133.236 Y101.974 E.02491
G1 X133.284 Y102.767 E.02491
G1 X133.256 Y103.561 E.02491
G1 X133.153 Y104.348 E.02491
G1 X132.974 Y105.122 E.02491
G1 X132.722 Y105.876 E.02491
G1 X132.399 Y106.602 E.02491
G1 X132.008 Y107.293 E.02491
G1 X131.553 Y107.944 E.02491
G1 X131.037 Y108.548 E.02491
G1 X130.466 Y109.101 E.02491
G1 X129.845 Y109.596 E.02491
G1 X129.179 Y110.029 E.02491
G1 X128.474 Y110.396 E.02491
G1 X127.722 Y110.673 E.02514
G1 X127.267 Y110.746 E.01444
G1 X126.794 Y110.76 E.01486
G1 X126.202 Y110.869 E.01886
G1 X126.73 Y111.147 E.01872
G1 X127.214 Y111.367 E.01666
G1 X127.77 Y111.834 E.02276
G1 X128.263 Y112.565 E.02767
G1 X128.619 Y113.393 E.02824
G1 X128.834 Y114.271 E.02835
G1 X128.909 Y115.193 E.02901
G1 X128.839 Y116.117 E.02904
G1 X128.63 Y116.99 E.02817
G1 X128.281 Y117.818 E.02816
G1 X127.804 Y118.551 E.02742
G1 X127.225 Y119.15 E.0261
G1 X126.546 Y119.61 E.02571
G1 X125.805 Y119.897 E.02494
G1 X125.024 Y119.999 E.0247
G1 X124.243 Y119.909 E.02464
G1 X123.499 Y119.633 E.02488
G1 X122.806 Y119.176 E.02602
G1 X122.21 Y118.568 E.02672
G1 X121.741 Y117.858 E.02667
G1 X121.383 Y117.03 E.02829
G1 X121.165 Y116.139 E.02876
G1 X121.091 Y115.231 E.02856
G1 X121.16 Y114.306 E.02909
G1 X121.373 Y113.416 E.02868
G1 X121.739 Y112.562 E.02914
G1 X122.197 Y111.873 E.02595
G1 X122.567 Y111.528 E.01586
G1 X122.792 Y111.367 E.00868
G1 X123.739 Y110.89 E.03326
M204 S1000
G1 X123.396 Y110.886 F10800
;WIPE_START
G1 F8640
G1 X123.11 Y110.742 E-.14922
G1 X122.643 Y110.734 E-.10792
G1 X122.278 Y110.673 E-.08541
G1 X121.548 Y110.405 E-.17962
G1 X120.837 Y110.038 E-.18474
G1 X120.644 Y109.913 E-.0531
;WIPE_END
G1 E-.04 F2100
G1 Z.6 F720
G1 X133.544 Y105.021 F10800
G1 Z.2 F720
G1 E.8 F2100
M204 S800
;TYPE:Solid infill
;WIDTH:0.422395
G1 F1200
G1 X133.93 Y105.406 E.01722
G1 X133.93 Y105.943 E.01693
G1 X133.527 Y105.54 E.01798
G1 X133.392 Y105.942 E.01337
G1 X133.93 Y106.48 E.02399
G1 X133.93 Y107.016 E.01693
G1 X133.243 Y106.329 E.03067
G1 X133.076 Y106.699 E.0128
G1 X133.93 Y107.553 E.03812
G1 X133.93 Y108.09 E.01693
G1 X132.899 Y107.059 E.046
G1 X132.704 Y107.4 E.01241
G1 X133.93 Y108.626 E.05472
G1 X133.93 Y109.163 E.01693
G1 X132.504 Y107.737 E.06363
G1 X132.283 Y108.053 E.01216
G1 X133.93 Y109.7 E.0735
G1 X133.93 Y110.236 E.01693
G1 X132.059 Y108.365 E.08352
G1 X131.812 Y108.655 E.01201
G1 X133.93 Y110.773 E.09451
G1 X133.93 Y111.31 E.01693
G1 X131.566 Y108.945 E.1055
G1 X131.296 Y109.212 E.01197
G1 X133.93 Y111.846 E.11754
G1 X133.93 Y112.383 E.01693
G1 X131.023 Y109.476 E.12973
G1 X130.739 Y109.728 E.01199
G1 X133.93 Y112.92 E.14241
G1 X133.93 Y113.456 E.01693
G1 X130.44 Y109.966 E.15576
G1 X130.131 Y110.194 E.01211
G1 X133.93 Y113.993 E.16952
G1 X133.93 Y114.53 E.01693
G1 X129.807 Y110.406 E.18399
G1 X129.478 Y110.614 E.01227
G1 X133.93 Y115.066 E.19866
G1 X133.93 Y115.603 E.01693
G1 X129.126 Y110.799 E.21437
G1 X128.774 Y110.983 E.01254
G1 X133.93 Y116.14 E.23008
G1 X133.93 Y116.676 E.01693
M73 Q3 S21
G1 X128.384 Y111.13 E.2475
G1 X128.095 Y111.238 E.00972
M73 P3 R21
G1 X128.347 Y111.499 E.01143
G1 X128.589 Y111.871 E.01401
G1 X133.93 Y117.213 E.23836
G1 X133.93 Y117.75 E.01693
G1 X129.147 Y112.966 E.21345
G1 X129.269 Y113.26 E.01005
G1 X129.379 Y113.735 E.01537
G1 X133.93 Y118.286 E.2031
G1 X133.93 Y118.823 E.01693
G1 X129.508 Y114.401 E.19731
G1 X129.553 Y114.982 E.01839
G1 X133.93 Y119.359 E.19532
G1 X133.93 Y119.896 E.01693
G1 X129.546 Y115.512 E.19564
G1 X129.506 Y116.009 E.01573
G1 X133.93 Y120.433 E.19742
G1 X133.93 Y120.969 E.01693
G1 X129.431 Y116.47 E.20076
G1 X129.323 Y116.899 E.01396
G1 X133.93 Y121.506 E.20557
G1 X133.93 Y122.043 E.01693
G1 X129.208 Y117.321 E.2107
G1 X129.045 Y117.694 E.01285
G1 X133.93 Y122.579 E.21801
G1 X133.93 Y123.116 E.01693
G1 X128.881 Y118.067 E.22532
G1 X128.821 Y118.203 E.00469
G1 X128.686 Y118.408 E.00776
G1 X133.93 Y123.653 E.23403
G1 X133.93 Y123.93 E.00875
G1 X133.671 Y123.93 E.00818
G1 X128.473 Y118.732 E.23196
G1 X128.324 Y118.958 E.00854
G1 X128.245 Y119.041 E.00361
G1 X133.134 Y123.93 E.21819
G1 X132.598 Y123.93 E.01693
G1 X127.982 Y119.315 E.20596
G1 X127.719 Y119.588 E.01198
G1 X132.061 Y123.93 E.19374
G1 X131.524 Y123.93 E.01693
G1 X127.416 Y119.822 E.18333
G1 X127.094 Y120.037 E.0122
G1 X130.988 Y123.93 E.17372
G1 X130.451 Y123.93 E.01693
G1 X126.759 Y120.239 E.16473
G1 X126.367 Y120.383 E.01319
G1 X129.914 Y123.93 E.15829
G1 X129.378 Y123.93 E.01693
G1 X125.973 Y120.526 E.15192
G1 X125.89 Y120.556 E.00279
G1 X125.511 Y120.601 E.01203
G1 X128.841 Y123.93 E.14858
G1 X128.304 Y123.93 E.01693
G1 X125.031 Y120.657 E.14605
G1 X124.432 Y120.595 E.019
G1 X127.768 Y123.93 E.14882
G1 X127.231 Y123.93 E.01693
G1 X123.433 Y120.133 E.16946
M204 S1000
;WIPE_START
G1 F8640
G1 X125.761 Y122.46 E-.76
;WIPE_END
G1 E-.04 F2100
G1 Z.6 F720
G1 X121.831 Y111.553 F10800
G1 Z.2 F720
G1 E.8 F2100
M204 S800
G1 F1200
G1 X120.896 Y110.619 E.04169
M204 S1000
;WIPE_START
G1 F8640
G1 X121.831 Y111.553 E-.3051
;WIPE_END
G1 E-.4949 F2100
G1 Z.6 F720
G1 X116.552 Y105.201 F10800
G1 Z.2 F720
G1 E.8 F2100
M204 S800
G1 F1200
G1 X116.093 Y104.742 E.02046
G1 X116.07 Y104.882 E.00447
G1 X116.07 Y105.256 E.01179
G1 X116.517 Y105.703 E.01997
G1 X116.866 Y106.588 E.03
G1 X116.07 Y105.792 E.0355
G1 X116.07 Y106.329 E.01693
G1 X117.54 Y107.8 E.06562
G1 X117.954 Y108.384 E.02259
G1 X118.464 Y108.981 E.02478
G1 X119.133 Y109.626 E.02935
G1 X119.807 Y110.157 E.02706
G1 X120.066 Y110.326 E.00975
G1 X121.49 Y111.749 E.06354
G1 X121.279 Y112.075 E.01224
G1 X116.07 Y106.866 E.23244
G1 X116.07 Y107.402 E.01693
G1 X121.082 Y112.415 E.22366
G1 X120.925 Y112.794 E.01296
G1 X116.07 Y107.939 E.21663
G1 X116.07 Y108.476 E.01693
G1 X120.767 Y113.173 E.2096
G1 X120.654 Y113.596 E.01383
G1 X116.07 Y109.012 E.20455
G1 X116.07 Y109.549 E.01693
G1 X120.553 Y114.032 E.20004
G1 X120.503 Y114.248 E.00699
M73 Q4 S21
G1 X120.484 Y114.5 E.00797
G1 X116.07 Y110.086 E.19697
G1 X116.07 Y110.622 E.01693
M73 P4 R21
G1 X120.446 Y114.999 E.19529
G1 X120.43 Y115.216 E.00688
G1 X120.456 Y115.545 E.01042
G1 X116.07 Y111.159 E.19574
G1 X116.07 Y111.696 E.01693
G1 X120.503 Y116.129 E.19782
G1 X120.512 Y116.24 E.00352
G1 X120.657 Y116.82 E.01886
G1 X116.07 Y112.232 E.20471
G1 X116.07 Y112.769 E.01693
G1 X121.256 Y117.956 E.23144
M204 S1000
;WIPE_START
G1 F8640
G1 X118.929 Y115.628 E-.76
;WIPE_END
G1 E-.04 F2100
G1 Z.6 F720
G1 X115.9 Y113.136 F10800
G1 Z.2 F720
G1 E.8 F2100
M204 S800
G1 F1200
G1 X126.694 Y123.93 E.48167
G1 X126.158 Y123.93 E.01693
G1 X116.07 Y113.842 E.45015
G1 X116.07 Y114.379 E.01693
G1 X125.621 Y123.93 E.4262
G1 X125.084 Y123.93 E.01693
G1 X116.07 Y114.916 E.40226
G1 X116.07 Y115.452 E.01693
G1 X124.548 Y123.93 E.37831
G1 X124.011 Y123.93 E.01693
G1 X116.07 Y115.989 E.35436
G1 X116.07 Y116.526 E.01693
G1 X123.474 Y123.93 E.33041
G1 X122.938 Y123.93 E.01693
G1 X116.07 Y117.062 E.30647
G1 X116.07 Y117.599 E.01693
G1 X122.401 Y123.93 E.28252
G1 X121.864 Y123.93 E.01693
G1 X116.07 Y118.136 E.25857
G1 X116.07 Y118.672 E.01693
G1 X121.328 Y123.93 E.23462
G1 X120.791 Y123.93 E.01693
G1 X116.07 Y119.209 E.21068
G1 X116.07 Y119.746 E.01693
G1 X120.254 Y123.93 E.18673
G1 X119.718 Y123.93 E.01693
G1 X116.07 Y120.282 E.16278
G1 X116.07 Y120.819 E.01693
G1 X119.181 Y123.93 E.13883
G1 X118.644 Y123.93 E.01693
